public/resources/img/icons/fortune.svg

<svg viewBox="0 0 24 24" xmlns="http://www.w3.org/2000/svg" xml:space="preserve" style="fill-rule:evenodd;clip-rule:evenodd;stroke-linejoin:round;stroke-miterlimit:2"><path d="M.046-.434c0-.01.001-.019.005-.029a.072.072 0 0 1 .014-.024.09.09 0 0 1 .027-.018.104.104 0 0 1 .038-.006c.015 0 .029.002.043.008a.32.32 0 0 1 .076.05l.039.031a.364.364 0 0 0 .102.054.403.403 0 0 0-.053-.101L.305-.508C.294-.52.285-.533.276-.545a.147.147 0 0 1-.029-.083c0-.015.002-.028.007-.039a.078.078 0 0 1 .017-.026.087.087 0 0 1 .079-.015.136.136 0 0 1 .021.01.075.075 0 0 1 .016.015l.012.016h.002l.012-.016A.08.08 0 0 1 .43-.698a.077.077 0 0 1 .047-.014c.009 0 .019.002.028.005a.064.064 0 0 1 .025.015.062.062 0 0 1 .017.026.118.118 0 0 1-.001.081.282.282 0 0 1-.021.038l-.029.038a.467.467 0 0 0-.085.141.304.304 0 0 0 .101-.054l.04-.031a.312.312 0 0 1 .075-.05.103.103 0 0 1 .043-.008c.015 0 .028.002.039.006a.1.1 0 0 1 .026.018.06.06 0 0 1 .015.024.097.097 0 0 1 0 .055.068.068 0 0 1-.01.021.088.088 0 0 1-.031.028v.003a.088.088 0 0 1 .031.028.068.068 0 0 1 .01.021.092.092 0 0 1 0 .054.06.06 0 0 1-.015.024.071.071 0 0 1-.026.018.107.107 0 0 1-.039.006.108.108 0 0 1-.044-.008.198.198 0 0 1-.038-.02.337.337 0 0 1-.037-.029l-.04-.032a.318.318 0 0 0-.099-.053c.004.021.008.04.01.059a.535.535 0 0 1-.005.142.297.297 0 0 1-.025.078.162.162 0 0 1-.044.058.096.096 0 0 1-.064.022.19.19 0 0 1-.035-.003A1.036 1.036 0 0 1 .22 0v-.037a.14.14 0 0 0 .067-.016.176.176 0 0 0 .055-.048.27.27 0 0 0 .037-.08.397.397 0 0 0 .011-.166.285.285 0 0 0-.101.053.416.416 0 0 0-.039.032.45.45 0 0 1-.037.028.147.147 0 0 1-.083.029.114.114 0 0 1-.039-.006.071.071 0 0 1-.026-.018.072.072 0 0 1-.014-.024.071.071 0 0 1-.005-.029c0-.009.001-.018.004-.025a.068.068 0 0 1 .01-.021.088.088 0 0 1 .031-.028v-.003a.088.088 0 0 1-.017-.012L.06-.387a.068.068 0 0 1-.01-.021.071.071 0 0 1-.004-.026z" style="fill-rule:nonzero" transform="translate(.972 21.642) scale(27.5587)"/></svg>

<?xml version="1.0" encoding="UTF-8" standalone="no"?>
<!DOCTYPE svg PUBLIC "-//W3C//DTD SVG 1.1//EN" "http://www.w3.org/Graphics/SVG/1.1/DTD/svg11.dtd">
<svg width="100%" height="100%" viewBox="0 0 24 24" version="1.1" xmlns="http://www.w3.org/2000/svg" xmlns:xlink="http://www.w3.org/1999/xlink" xml:space="preserve" xmlns:serif="http://www.serif.com/" style="fill-rule:evenodd;clip-rule:evenodd;stroke-linejoin:round;stroke-miterlimit:2;">
    <g transform="matrix(27.5587,0,0,27.5587,0.972499,21.6415)">
        <path d="M0.046,-0.434C0.046,-0.444 0.047,-0.453 0.051,-0.463C0.054,-0.472 0.059,-0.48 0.065,-0.487C0.072,-0.494 0.081,-0.5 0.092,-0.505C0.102,-0.509 0.115,-0.511 0.13,-0.511C0.145,-0.511 0.159,-0.509 0.173,-0.503C0.186,-0.498 0.199,-0.491 0.211,-0.482C0.224,-0.474 0.236,-0.464 0.249,-0.453C0.261,-0.443 0.274,-0.432 0.288,-0.422C0.302,-0.411 0.318,-0.401 0.334,-0.392C0.351,-0.382 0.369,-0.374 0.39,-0.368C0.383,-0.389 0.376,-0.407 0.366,-0.423C0.357,-0.44 0.347,-0.455 0.337,-0.469C0.326,-0.482 0.316,-0.495 0.305,-0.508C0.294,-0.52 0.285,-0.533 0.276,-0.545C0.267,-0.557 0.26,-0.57 0.255,-0.584C0.25,-0.597 0.247,-0.612 0.247,-0.628C0.247,-0.643 0.249,-0.656 0.254,-0.667C0.258,-0.677 0.264,-0.686 0.271,-0.693C0.278,-0.699 0.286,-0.704 0.296,-0.707C0.305,-0.71 0.314,-0.712 0.324,-0.712C0.334,-0.712 0.342,-0.711 0.35,-0.708C0.358,-0.705 0.364,-0.702 0.371,-0.698C0.377,-0.694 0.382,-0.689 0.387,-0.683C0.391,-0.678 0.395,-0.672 0.399,-0.667L0.401,-0.667C0.405,-0.672 0.409,-0.678 0.413,-0.683C0.418,-0.689 0.424,-0.694 0.43,-0.698C0.436,-0.702 0.443,-0.705 0.45,-0.708C0.458,-0.711 0.467,-0.712 0.477,-0.712C0.486,-0.712 0.496,-0.71 0.505,-0.707C0.514,-0.704 0.523,-0.699 0.53,-0.692C0.537,-0.686 0.543,-0.677 0.547,-0.666C0.552,-0.656 0.554,-0.643 0.554,-0.628C0.554,-0.612 0.551,-0.598 0.546,-0.585C0.54,-0.572 0.533,-0.559 0.525,-0.547C0.516,-0.534 0.506,-0.522 0.496,-0.509C0.485,-0.497 0.475,-0.484 0.464,-0.469C0.454,-0.455 0.444,-0.44 0.434,-0.424C0.425,-0.407 0.417,-0.389 0.411,-0.368C0.431,-0.374 0.45,-0.382 0.466,-0.392C0.483,-0.401 0.498,-0.411 0.512,-0.422C0.526,-0.432 0.539,-0.443 0.552,-0.453C0.564,-0.464 0.577,-0.474 0.589,-0.482C0.602,-0.491 0.614,-0.498 0.627,-0.503C0.64,-0.509 0.655,-0.511 0.67,-0.511C0.685,-0.511 0.698,-0.509 0.709,-0.505C0.719,-0.5 0.728,-0.494 0.735,-0.487C0.742,-0.48 0.747,-0.472 0.75,-0.463C0.753,-0.453 0.754,-0.444 0.754,-0.434C0.754,-0.424 0.753,-0.416 0.75,-0.408C0.748,-0.4 0.744,-0.393 0.74,-0.387C0.736,-0.381 0.731,-0.376 0.726,-0.371C0.72,-0.366 0.715,-0.362 0.709,-0.359L0.709,-0.356C0.715,-0.353 0.72,-0.349 0.726,-0.344C0.731,-0.34 0.736,-0.334 0.74,-0.328C0.744,-0.322 0.748,-0.315 0.75,-0.307C0.753,-0.3 0.754,-0.291 0.754,-0.282C0.754,-0.272 0.753,-0.262 0.75,-0.253C0.747,-0.244 0.742,-0.236 0.735,-0.229C0.728,-0.221 0.72,-0.216 0.709,-0.211C0.699,-0.207 0.686,-0.205 0.67,-0.205C0.654,-0.205 0.64,-0.207 0.626,-0.213C0.613,-0.218 0.6,-0.225 0.588,-0.233C0.575,-0.242 0.563,-0.251 0.551,-0.262C0.538,-0.273 0.525,-0.283 0.511,-0.294C0.498,-0.304 0.483,-0.314 0.466,-0.323C0.45,-0.333 0.432,-0.34 0.412,-0.347C0.416,-0.326 0.42,-0.307 0.422,-0.288C0.424,-0.27 0.425,-0.25 0.425,-0.23C0.425,-0.203 0.423,-0.175 0.417,-0.146C0.412,-0.117 0.403,-0.091 0.392,-0.068C0.381,-0.044 0.366,-0.025 0.348,-0.01C0.33,0.005 0.309,0.012 0.284,0.012C0.271,0.012 0.26,0.011 0.249,0.009C0.239,0.006 0.229,0.003 0.22,-0L0.22,-0.037C0.244,-0.037 0.266,-0.042 0.287,-0.053C0.307,-0.064 0.326,-0.08 0.342,-0.101C0.357,-0.123 0.37,-0.149 0.379,-0.181C0.388,-0.212 0.393,-0.249 0.393,-0.291C0.393,-0.308 0.392,-0.327 0.39,-0.347C0.369,-0.341 0.351,-0.333 0.334,-0.324C0.318,-0.315 0.303,-0.305 0.289,-0.294C0.275,-0.284 0.262,-0.273 0.25,-0.262C0.238,-0.252 0.225,-0.242 0.213,-0.234C0.201,-0.225 0.188,-0.218 0.174,-0.213C0.161,-0.207 0.146,-0.205 0.13,-0.205C0.115,-0.205 0.102,-0.207 0.091,-0.211C0.08,-0.216 0.072,-0.221 0.065,-0.229C0.059,-0.236 0.054,-0.244 0.051,-0.253C0.047,-0.262 0.046,-0.272 0.046,-0.282C0.046,-0.291 0.047,-0.3 0.05,-0.307C0.052,-0.315 0.056,-0.322 0.06,-0.328C0.064,-0.334 0.069,-0.34 0.074,-0.344C0.08,-0.349 0.085,-0.353 0.091,-0.356L0.091,-0.359C0.085,-0.362 0.08,-0.366 0.074,-0.371C0.069,-0.376 0.064,-0.381 0.06,-0.387C0.056,-0.393 0.052,-0.4 0.05,-0.408C0.047,-0.416 0.046,-0.424 0.046,-0.434Z" style="fill-rule:nonzero;"/>
    </g>
</svg>
